svgs/materials/action/smart_button.svg

<svg xmlns="http://www.w3.org/2000/svg" enable-background="new 0 0 24 24" height="24" viewBox="0 0 24 24" width="24"><g><rect fill="none" height="24" width="24"/><path d="M22,9v6c0,1.1-0.9,2-2,2h-1l0-2h1V9H4v6h6v2H4c-1.1,0-2-0.9-2-2V9c0-1.1,0.9-2,2-2h16C21.1,7,22,7.9,22,9z M14.5,19 l1.09-2.41L18,15.5l-2.41-1.09L14.5,12l-1.09,2.41L11,15.5l2.41,1.09L14.5,19z M17,14l0.62-1.38L19,12l-1.38-0.62L17,10l-0.62,1.38 L15,12l1.38,0.62L17,14z M14.5,19l1.09-2.41L18,15.5l-2.41-1.09L14.5,12l-1.09,2.41L11,15.5l2.41,1.09L14.5,19z M17,14l0.62-1.38 L19,12l-1.38-0.62L17,10l-0.62,1.38L15,12l1.38,0.62L17,14z"/></g></svg>

<?xml version="1.0" encoding="UTF-8" standalone="no"?>
<svg
   enable-background="new 0 0 24 24"
   height="24"
   viewBox="0 0 24 24"
   width="24"
   version="1.1"
   id="svg8"
   sodipodi:docname="smart_button.svg"
   inkscape:version="1.2 (dc2aeda, 2022-05-15)"
   xmlns:inkscape="http://www.inkscape.org/namespaces/inkscape"
   xmlns:sodipodi="http://sodipodi.sourceforge.net/DTD/sodipodi-0.dtd"
   xmlns="http://www.w3.org/2000/svg"
   xmlns:svg="http://www.w3.org/2000/svg">
  <defs
     id="defs12" />
  <sodipodi:namedview
     id="namedview10"
     pagecolor="#ffffff"
     bordercolor="#000000"
     borderopacity="0.25"
     inkscape:showpageshadow="2"
     inkscape:pageopacity="0.0"
     inkscape:pagecheckerboard="0"
     inkscape:deskcolor="#d1d1d1"
     showgrid="false"
     inkscape:zoom="9.8333333"
     inkscape:cx="11.949153"
     inkscape:cy="12"
     inkscape:window-width="1309"
     inkscape:window-height="456"
     inkscape:window-x="0"
     inkscape:window-y="25"
     inkscape:window-maximized="0"
     inkscape:current-layer="svg8" />
  <path
     id="rect2"
     style="fill:none"
     d="M 0,0 H 24 V 24 H 0 Z" />
  <path
     d="m 22,9 v 6 c 0,1.1 -0.9,2 -2,2 h -1 v -2 h 1 V 9 H 4 v 6 h 6 v 2 H 4 C 2.9,17 2,16.1 2,15 V 9 C 2,7.9 2.9,7 4,7 h 16 c 1.1,0 2,0.9 2,2 z M 14.5,19 15.59,16.59 18,15.5 15.59,14.41 14.5,12 13.41,14.41 11,15.5 13.41,16.59 Z M 17,14 17.62,12.62 19,12 17.62,11.38 17,10 16.38,11.38 15,12 16.38,12.62 Z M 14.5,19 15.59,16.59 18,15.5 15.59,14.41 14.5,12 13.41,14.41 11,15.5 13.41,16.59 Z M 17,14 17.62,12.62 19,12 17.62,11.38 17,10 16.38,11.38 15,12 l 1.38,0.62 z"
     id="path4" />
</svg>
